X:1
T:Hurry Up!
T:Hurry Up!
T:Final Fantasy VII
T:Nobuo Uematsu
C:Nobuo Uematsu
%%score { 1 | 2 }
L:1/8
Q:1/4=180
M:12/8
K:Bb
V:1 treble nm="Piano" snm="Pno."
V:2 bass 
V:1
|:!mf! .d.c.d .e.d.c dAA dce | .d.c.d .e.d.c fed edc | .d.c.d .e.d.c dAA dce | %3
 .d.c.d .e.d.c f(3e/f/e/d edc | .g.f.g ._a.g.f g2 b2 a2 |!<(! g2 d'2 c'2 b2 c'2 b_a!<)! | %6
[M:4/4] !>![dg]2 z !>![dg]2 z2 z | z8 |[M:7/4] !>![dg]2 z !>![dg]2 z8 z | %9
 !>![dg]2 z !>![dg]2 z8 z | !>![dg]2 z !>![dg]2 z8 z :|[K:F][M:7/8] ac'b ga ea!mf! | cgf ce Be | %13
 Adc GB G_A |[M:4/4]!mp!!<(! z ee z cc z a | a z c'c' z bb z!<)! |[M:7/8]!mf! ac'b ga ea | %17
 cgf ce Be | Adc GA/B/ c/d/e/f/ |[M:4/4] g/ a2 z3/2 cc z a |!<(! a z c'c' z bb z!<)! | %21
[M:12/8]!f! [GB]2 A- [Ac]2 B- [Bd]2 [Ac] z [ce]2 | [df]2 e- [eg]2 f- [fa]2 [eg] z [g=b]2 | %23
 [Ac]2 =B- [Bd]2 c- [ce]2 [Bd] z [c^f]2 |!p! .[=Bg].d.d .c.B.B .c.c.d .d.c.B | %25
!<(! z .d.d .c.=B.B .c.c.d .d.c.B!<)! |!f!!<(! [B_d]2 c- [c_e]2 d- [df]2 [ce] z [dg]2 | %27
 [f_a]2 g- [gb]2 a- [ac']2 [gb] z [ad']2 | [c_e]2 d- [df]2 e- [eg]2 [df] z [ea]2!<)! | %29
!mp! .[db].f.f ._e.d.d .e.e.f .f.e.d |!>(! z .f.f ._e.d.d .e.e.f .f.e.d!>)! |!p! [c_a]12- | %32
 [ca]12 |[M:4/4][Q:1/4=120]!f! (3[EGc][EGc][EGc] [EGc]2 [_D_E_A]2 [=DFB]2 | %34
 (3:2:2.[CFc]2 [_DFB] [_EFc]4- [EFc]2 | [EGc]8 |] %36
V:2
|: .[D,D]2 z .[D,D]2 z .[D,D]2 .[C,C]2 [C,C]2 | .[D,D]2 z .[D,D]2 z .[D,D]2 .[F,F]2 [E,E]2 | %2
 .[D,D]2 z .[D,D]2 z .[D,D]2 .[C,C]2 [C,C]2 | .[D,D]2 z .[D,D]2 z .[D,D]2 [E,E]2 [F,F][_G,_G] | %4
 .[G,G]2 z .[G,G]2 z [G,G]2 [F,F]2 [^G,^G]2 | [G,G]2 [D,D]2 [E,E]2 [=E,=E]2 [F,F]2 [^F,^F]2 | %6
[M:4/4] G,2 z G,2 z G,2 | D,2 F,2 D,2 D,2 |[M:7/4] G,2 z G,2 z G,2 D,2 F,2 ^G,2 | %9
 G,2 z G,2 z G,2 D,2 F,2 D,2 | G,2 z G,2 z!>(! G,2 D,2 F,2 D,2!>)! :| %11
[K:F][M:7/8] [E,=A,]2 z2 [E,=A,]3 | [D,G,]2 z z [D,G,]3 | [C,F,]3 z [C,F,]3 | %14
[M:4/4] [E,=A,]3 .=A,2 z .=A,2 | z .A,2 z .A,2 z A, |[M:7/8] [E,=A,]2 z2 [E,=A,]3 | %17
 [D,G,]2 z2 [D,G,]3 | [C,F,]3 z [C,F,]3 |[M:4/4] [E,=A,]3!mp! .=A,2 z .=A,2 | z .A,2 z .A,2 z A, | %21
[M:12/8] [G,D] z [G,D] [G,D] z [G,D] [G,D] z [G,D] z [G,D]2 | %22
 [D,A,] z [D,A,] [D,A,] z [D,A,] [D,A,] z [D,A,] z [D,A,]2 | %23
 [A,,E,] z [A,,E,] [A,,E,] z [A,,E,] [A,,E,] z [A,,E,] z [A,,E,]2 | %24
 E,.[G,E].[G,E] .[G,E].[G,E].[G,E] .[G,E].[G,E].[G,E] .[G,E].[G,E].[G,E] | %25
 E,.[G,E].[G,E] .[G,E].[G,E].[G,E] .[G,E].[G,E].[G,E] .[G,E].[G,E].[G,E] | %26
 [B,,F,] z [B,,F,] [B,,F,] z [B,,F,] [B,,F,] z [B,,F,] z [B,,F,]2 | %27
 [F,,C,] z [F,,C,] [F,,C,] z [F,,C,] [F,,C,] z [F,,C,] z [F,,C,]2 | %28
 [C,G,] z [C,G,] [C,G,] z [C,G,] [C,G,] z [C,G,] z [C,G,]2 | %29
 .G,,.[B,,G,].[B,,G,] .[B,,G,].[B,,G,].[B,,G,] .[B,,G,].[B,,G,].[B,,G,] .[B,,G,].[B,,G,].[B,,G,] | %30
 .G,,.[B,,G,].[B,,G,] .[B,,G,].[B,,G,].[B,,G,] .[B,,G,].[B,,G,].[B,,G,] .[B,,G,].[B,,G,].[B,,G,] | %31
 F,,F,F, F,,F,F, F,,F,F,, F,F,F, |!<(! F,,F,F, F,,F,F, F,,F,F,, F,_A,B,!<)! | %33
[M:4/4] (3C,,E,,G,, (3C,G,,E,, (3_D,,_E,,_A,, (3B,,D,F, | %34
 (3F,,_A,,B,, (3_D,F,_A, C/A,/F,/D,/ C,/A,,/F,,/_D,,/ | [C,,C,]8 |] %36

